Sorst/app/images/blue-logo.svg

<svg width="180" height="34" viewBox="0 0 180 34" fill="none" xmlns="http://www.w3.org/2000/svg">
<path fill-rule="evenodd" clip-rule="evenodd" d="M45.0206 10.4768L33.9759 16.6367L45.0206 22.7967C47.8858 24.2805 50.7509 24.1905 53.6161 22.6168L64.3373 16.6367L53.6161 10.6567C52.1835 9.84733 50.7509 9.44267 49.3184 9.39771C47.932 9.39771 46.4994 9.75741 45.0206 10.4768Z" fill="#0A0854"/>
<path fill-rule="evenodd" clip-rule="evenodd" d="M29.6386 16.6172L18.1729 10.092C16.8586 9.55199 15.5897 9.32699 14.3208 9.41699C13.0518 9.50699 11.7829 9.912 10.514 10.632L0 16.6172L10.514 22.6023C13.0518 24.0423 15.5897 24.2673 18.1729 23.1423L29.6386 16.6172Z" fill="#0A0854"/>
<path fill-rule="evenodd" clip-rule="evenodd" d="M17.3494 7.18375L28.8604 13.7492C31.3529 14.8284 33.7548 14.6486 36.1567 13.3894L46.988 7.22872L36.5193 1.24788C33.5736 -0.41596 30.6732 -0.41596 27.7727 1.24788L17.3494 7.18375Z" fill="#ED1C24"/>
<path fill-rule="evenodd" clip-rule="evenodd" d="M28.8604 19.5182L17.3494 26.0769L27.7727 32.0066C30.7185 33.6688 33.6189 33.6688 36.5193 32.0066L46.9879 26.0319L36.1567 19.8775C33.7548 18.5748 31.3076 18.44 28.8604 19.5182Z" fill="#0A0854"/>
<path fill-rule="evenodd" clip-rule="evenodd" d="M177.695 26.7012L177.83 25.4308H173.853L174.305 21.1661H172.813L172.226 26.7466H177.695V26.7012ZM169.694 26.7012L169.83 25.4308H165.852L166.304 21.1661H164.813L164.225 26.7466H169.694V26.7012ZM159.434 24.6142H157.084L158.53 22.3457L159.434 24.6142ZM161.965 26.7012L159.705 21.1207H157.626L154.191 26.7012H155.818L156.406 25.7484H159.931L160.338 26.7012H161.965ZM153.151 22.4364L153.287 21.1661H147.14L147.004 22.4364H149.309L148.857 26.7012H150.349L150.801 22.4364H153.151ZM144.111 26.7012L144.247 25.4762H139.908L140.043 24.3873H144.156L144.247 23.3438H140.134L140.224 22.3457H144.518L144.654 21.1207H138.913L138.326 26.7012H144.111ZM135.568 26.7012L136.156 21.1207H134.032L131.32 25.204L129.557 21.1207H127.342L126.754 26.7012H128.246L128.653 22.6179L130.416 26.7012H131.862L134.529 22.6179L134.122 26.7012H135.568ZM114.912 24.7503V24.5688H113.42V24.7503C113.33 25.3855 113.059 25.4308 112.426 25.4308H110.618C109.94 25.4308 109.85 25.1133 109.94 24.2966L110.03 23.4346C110.121 22.6633 110.302 22.3911 110.889 22.3911H112.742C113.24 22.3911 113.601 22.4364 113.601 22.9355L113.556 23.1624H115.093L115.138 22.9355C115.319 21.2568 114.505 21.1207 113.24 21.1207H111.251C109.85 21.1207 108.765 21.3929 108.584 23.2077L108.448 24.6596C108.222 26.7012 109.398 26.7466 110.708 26.7466H112.516C113.24 26.7466 113.782 26.7466 114.324 26.3382C114.776 25.9299 114.867 25.3855 114.912 24.7503ZM105.556 26.7012L105.691 25.4762H101.352L101.488 24.3873H105.601L105.691 23.3438H101.578L101.669 22.3457H105.963L106.098 21.1207H100.358L99.7701 26.7012H105.556ZM89.0125 22.4364L89.1481 21.1661H82.6393L82.5037 22.4364H84.9897L84.5377 26.7012H86.0293L86.4813 22.4364H89.0125ZM95.8829 22.9355C95.8377 23.3892 95.7473 23.5253 95.3405 23.5253H92.5833L92.7189 22.3457H95.4761C95.8829 22.3457 95.9281 22.4818 95.8829 22.9355ZM97.1033 26.7012L96.1089 24.5688C96.8321 24.4781 97.2841 24.1151 97.3745 23.0716C97.3745 22.9809 97.3745 22.9809 97.3745 22.9355C97.3745 22.8448 97.4197 22.754 97.4197 22.7087C97.5553 21.3929 96.9225 21.1661 95.8377 21.1661H91.4081L90.8205 26.7466H92.3121L92.5381 24.6596H94.4365L95.4309 26.7466H97.1033V26.7012ZM124.268 26.7012L123.003 23.9336L124.856 21.1661H123.138L121.737 23.2531H119.296L119.522 21.1661H118.031L117.443 26.7466H118.935L119.161 24.5688H121.556L122.596 26.7466H124.268V26.7012ZM80.0629 24.9318C80.1985 23.6614 79.8369 23.3438 78.1645 23.3438L75.8141 23.2985C75.4073 23.2985 75.2265 23.2531 75.2717 22.7994C75.3169 22.4818 75.4073 22.3003 76.1757 22.3003H79.7917L79.9273 21.0753H76.3113C74.8649 21.0753 73.9609 21.1661 73.7801 22.754C73.5993 24.342 74.4129 24.3873 75.7689 24.4327L77.8481 24.4781C78.4357 24.4781 78.6165 24.5234 78.5713 24.9771C78.5261 25.4308 78.3001 25.4762 77.5769 25.4762H73.8705L73.7349 26.7012C76.1757 26.7012 76.0401 26.7012 77.4413 26.7012C79.8821 26.7466 79.9725 25.8392 80.0629 24.9318ZM180 5.05981C174.214 5.05981 167.706 5.05981 161.784 5.05981C161.106 5.05981 160.519 5.60425 160.474 6.23943L160.338 7.50978H167.48L166.44 17.2643H170.327C171.005 17.2643 171.593 16.7198 171.638 16.0847C171.954 13.2264 172.226 10.3681 172.542 7.50978H178.508C179.186 7.50978 179.774 6.96535 179.819 6.33017L180 5.05981ZM98.7757 17.3097C96.7417 17.3097 95.2953 15.631 95.4761 13.6347C95.6569 12.0014 95.8377 10.3681 95.9733 8.73477C96.1993 6.69313 98.0073 5.05981 100.041 5.05981C103.928 5.05981 107.861 5.05981 111.748 5.05981C113.782 5.05981 115.228 6.7385 115.048 8.73477C114.867 10.3681 114.686 12.0014 114.55 13.6347C114.324 15.6763 112.516 17.3097 110.482 17.3097C106.595 17.3097 102.663 17.3097 98.7757 17.3097ZM100.584 13.6347C100.493 14.3152 100.991 14.8143 101.669 14.8143C103.838 14.8143 106.008 14.8143 108.177 14.8143C108.855 14.8143 109.443 14.2699 109.488 13.6347C109.669 12.0014 109.85 10.3681 109.985 8.73477C110.076 8.05422 109.578 7.55515 108.9 7.55515C106.731 7.55515 104.561 7.55515 102.392 7.55515C101.714 7.55515 101.126 8.09959 101.081 8.73477C100.9 10.3681 100.719 12.0014 100.584 13.6347ZM131.681 8.78014C131.591 9.46068 131.003 9.95975 130.37 9.95975H124.992L124.72 12.4551L129.602 17.355H135.568L130.687 12.4551C131.274 12.4551 132.133 12.4551 132.721 12.4551C134.755 12.4551 136.563 10.7764 136.789 8.78014C137.015 6.7385 135.523 5.10518 133.489 5.10518C128.743 5.10518 124.042 5.10518 119.296 5.10518C118.618 5.10518 118.031 5.64962 117.986 6.2848L116.81 17.355H120.698C121.376 17.355 121.963 16.8106 122.008 16.1754C122.325 13.3171 122.596 10.4588 122.912 7.60052H130.596C131.229 7.55515 131.726 8.09959 131.681 8.78014ZM142.394 12.4551C140.36 12.4551 138.913 10.7764 139.094 8.78014C139.32 6.7385 141.128 5.10518 143.162 5.10518C147.998 5.10518 153.151 5.10518 157.988 5.10518L157.852 6.37554C157.762 7.05609 157.174 7.55515 156.541 7.55515C152.925 7.55515 149.083 7.55515 145.512 7.55515C144.834 7.55515 144.247 8.09959 144.202 8.73477C144.111 9.41531 144.608 9.91438 145.286 9.91438C148.315 9.91438 151.705 9.91438 154.733 9.91438C156.767 9.91438 158.214 11.5931 158.033 13.5893C157.807 15.631 155.999 17.2643 153.965 17.2643C149.128 17.2643 143.976 17.2643 139.139 17.2643L139.275 15.9939C139.365 15.3134 139.953 14.8143 140.586 14.8143C144.202 14.8143 148.044 14.8143 151.614 14.8143C152.292 14.8143 152.88 14.2699 152.925 13.6347C153.016 12.9542 152.518 12.4551 151.84 12.4551C148.812 12.4551 145.422 12.4551 142.394 12.4551ZM77.6673 12.4551C75.6333 12.4551 74.1869 10.7764 74.3677 8.78014C74.5937 6.7385 76.4017 5.10518 78.4357 5.10518C83.2721 5.10518 88.4249 5.10518 93.2613 5.10518L93.1257 6.37554C93.0353 7.05609 92.4477 7.55515 91.8149 7.55515C88.1989 7.55515 84.3569 7.55515 80.7861 7.55515C80.1081 7.55515 79.5205 8.09959 79.4753 8.73477C79.3849 9.41531 79.8821 9.91438 80.5601 9.91438C83.5885 9.91438 86.9785 9.91438 90.0069 9.91438C92.0409 9.91438 93.4873 11.5931 93.3065 13.5893C93.0805 15.631 91.2725 17.2643 89.2385 17.2643C84.4021 17.2643 79.2493 17.2643 74.4129 17.2643L74.5485 15.9939C74.6389 15.3134 75.2265 14.8143 75.8593 14.8143C79.4753 14.8143 83.3173 14.8143 86.8881 14.8143C87.5661 14.8143 88.1537 14.2699 88.1989 13.6347C88.2893 12.9542 87.7921 12.4551 87.1141 12.4551C84.0405 12.4551 80.6957 12.4551 77.6673 12.4551Z" fill="#0A0854"/>
</svg>

<svg width="180" height="34" fill="none" xmlns="http://www.w3.org/2000/svg"><path fill-rule="evenodd" clip-rule="evenodd" d="M45.02 10.477l-11.044 6.16 11.045 6.16c2.865 1.483 5.73 1.393 8.595-.18l10.721-5.98-10.72-5.98c-1.433-.81-2.866-1.214-4.299-1.26-1.386 0-2.819.36-4.297 1.08zm-15.381 6.14l-11.466-6.525c-1.314-.54-2.583-.765-3.852-.675-1.27.09-2.538.495-3.807 1.215L0 16.617l10.514 5.985c2.538 1.44 5.076 1.665 7.659.54l11.466-6.525z" fill="#0A0854"/><path fill-rule="evenodd" clip-rule="evenodd" d="M17.35 7.184l11.51 6.565c2.493 1.08 4.895.9 7.297-.36l10.831-6.16-10.469-5.981c-2.945-1.664-5.846-1.664-8.746 0L17.349 7.184z" fill="#ED1C24"/><path fill-rule="evenodd" clip-rule="evenodd" d="M28.86 19.518l-11.51 6.559 10.423 5.93c2.945 1.662 5.846 1.662 8.746 0l10.469-5.975-10.831-6.154c-2.402-1.303-4.85-1.438-7.297-.36zm148.835 7.183l.135-1.27h-3.977l.452-4.265h-1.492l-.587 5.58h5.469v-.045zm-8.001 0l.136-1.27h-3.978l.452-4.265h-1.491l-.588 5.58h5.469v-.045zm-10.26-2.087h-2.35l1.446-2.268.904 2.268zm2.531 2.087l-2.26-5.58h-2.079l-3.435 5.58h1.627l.588-.953h3.525l.407.953h1.627zm-8.814-4.265l.136-1.27h-6.147l-.136 1.27h2.305l-.452 4.265h1.492l.452-4.265h2.35zm-9.04 4.265l.136-1.225h-4.339l.135-1.089h4.113l.091-1.043h-4.113l.09-.998h4.294l.136-1.225h-5.741l-.587 5.58h5.785zm-8.543 0l.588-5.58h-2.124l-2.712 4.083-1.763-4.083h-2.215l-.588 5.58h1.492l.407-4.083 1.763 4.083h1.446l2.667-4.083-.407 4.083h1.446zm-20.656-1.95v-.182h-1.492v.181c-.09.636-.361.68-.994.68h-1.808c-.678 0-.768-.317-.678-1.133l.09-.862c.091-.772.272-1.044.859-1.044h1.853c.498 0 .859.045.859.545l-.045.226h1.537l.045-.226c.181-1.68-.633-1.815-1.898-1.815h-1.989c-1.401 0-2.486.272-2.667 2.087l-.136 1.452c-.226 2.041.95 2.087 2.26 2.087h1.808c.724 0 1.266 0 1.808-.409.452-.408.543-.953.588-1.588zm-9.356 1.95l.135-1.225h-4.339l.136-1.089h4.113l.09-1.043h-4.113l.091-.998h4.294l.135-1.225h-5.74l-.588 5.58h5.786zm-16.543-4.265l.135-1.27H82.64l-.135 1.27h2.486l-.452 4.265h1.491l.452-4.265h2.532zm6.87.5c-.045.453-.136.59-.542.59h-2.758l.136-1.18h2.757c.407 0 .452.136.407.59zm1.22 3.765l-.994-2.132c.723-.09 1.175-.454 1.266-1.497v-.136c0-.091.045-.182.045-.227.135-1.316-.498-1.543-1.582-1.543h-4.43l-.588 5.58h1.492l.226-2.086h1.898l.995 2.087h1.672V26.7zm27.165 0l-1.265-2.767 1.853-2.768h-1.718l-1.401 2.087h-2.441l.226-2.087h-1.491l-.588 5.58h1.492l.226-2.177h2.395l1.04 2.178h1.672V26.7zm-44.205-1.77c.135-1.27-.226-1.587-1.898-1.587l-2.35-.046c-.408 0-.588-.045-.543-.499.045-.317.135-.499.904-.499h3.616l.135-1.225h-3.616c-1.446 0-2.35.091-2.53 1.679-.182 1.588.632 1.633 1.988 1.679l2.08.045c.587 0 .767.045.722.5-.045.453-.27.498-.994.498H73.87l-.136 1.225h3.706c2.441.046 2.531-.862 2.622-1.77zM180 5.06h-18.216c-.678 0-1.265.544-1.31 1.18l-.136 1.27h7.142l-1.04 9.754h3.887c.678 0 1.266-.544 1.311-1.18.316-2.858.588-5.716.904-8.574h5.966c.678 0 1.266-.545 1.311-1.18L180 5.06zM98.776 17.31c-2.034 0-3.48-1.679-3.3-3.675.18-1.634.362-3.267.497-4.9.226-2.042 2.034-3.675 4.068-3.675h11.707c2.034 0 3.48 1.679 3.3 3.675-.181 1.633-.362 3.266-.498 4.9-.226 2.041-2.034 3.675-4.068 3.675H98.776zm1.808-3.675c-.091.68.407 1.18 1.085 1.18h6.508c.678 0 1.266-.545 1.311-1.18.181-1.634.362-3.267.497-4.9.091-.68-.407-1.18-1.085-1.18h-6.508c-.678 0-1.266.545-1.311 1.18-.181 1.633-.362 3.266-.497 4.9zm31.097-4.855c-.09.68-.678 1.18-1.311 1.18h-5.378l-.272 2.495 4.882 4.9h5.966l-4.881-4.9h2.034c2.034 0 3.842-1.679 4.068-3.675.226-2.041-1.266-3.675-3.3-3.675h-14.193c-.678 0-1.265.545-1.31 1.18l-1.176 11.07h3.888c.678 0 1.265-.544 1.31-1.18.317-2.858.588-5.716.904-8.574h7.684c.633-.046 1.13.499 1.085 1.18zm10.713 3.675c-2.034 0-3.481-1.679-3.3-3.675.226-2.041 2.034-3.675 4.068-3.675h14.826l-.136 1.27c-.09.681-.678 1.18-1.311 1.18h-11.029c-.678 0-1.265.545-1.31 1.18-.091.68.406 1.18 1.084 1.18h9.447c2.034 0 3.481 1.678 3.3 3.674-.226 2.042-2.034 3.675-4.068 3.675h-14.826l.136-1.27c.09-.68.678-1.18 1.311-1.18h11.028c.678 0 1.266-.544 1.311-1.18.091-.68-.407-1.179-1.085-1.179h-9.446zm-64.727 0c-2.034 0-3.48-1.679-3.3-3.675.227-2.041 2.035-3.675 4.069-3.675H93.26l-.135 1.27c-.09.681-.678 1.18-1.311 1.18H80.786c-.678 0-1.266.545-1.31 1.18-.091.68.406 1.18 1.084 1.18h9.447c2.034 0 3.48 1.678 3.3 3.674-.227 2.042-2.035 3.675-4.069 3.675H74.413l.136-1.27c.09-.68.677-1.18 1.31-1.18h11.03c.677 0 1.265-.544 1.31-1.18.09-.68-.407-1.179-1.085-1.179h-9.447z" fill="#0A0854"/></svg>
